wildlife/assets/img/logo.svg

<svg width="69" height="60" viewBox="0 0 69 60" fill="none" xmlns="http://www.w3.org/2000/svg">
<path fill-rule="evenodd" clip-rule="evenodd" d="M6.3948 2.44604C4.16477 7.15504 3.65727 16.4691 5.36475 21.3461C5.73505 22.4039 6.12845 23.6725 6.23905 24.1655C6.50697 25.3616 9.98755 33.4607 11.3835 36.1374C12.7536 38.7639 12.7282 38.7901 10.1004 37.4541C6.3206 35.5326 3.34752 31.5826 2.05042 26.7593C1.13115 23.3408 0.00397348 23.2777 0.0772985 26.6488C0.205224 32.5289 5.17522 38.814 12.5882 42.4708C15.5288 43.9211 14.6779 42.7686 21.2467 54.2024C24.0457 59.0747 24.1808 59.2308 25.5972 59.2308C27.3561 59.2308 27.6071 58.8444 28.5953 54.6155C29.5972 50.3279 30.7228 46.6075 31.9289 43.5965L32.7948 41.4347L31.8533 40.1431C31.3355 39.4326 30.798 38.8502 30.6593 38.8488C30.1948 38.844 28.0869 43.6096 26.7646 47.6535L25.4569 51.6532L23.9027 49.3844C22.4623 47.2811 17.952 38.948 16.8384 36.3319C12.847 26.9553 14.4788 15.6138 20.3028 12.2518C22.3567 11.066 21.9794 9.6086 19.8173 10.3764C15.3945 11.9471 11.3867 18.6498 10.9586 25.1924C10.8617 26.6725 9.7457 24.0611 8.6236 19.7287C7.47227 15.2835 7.3727 6.67708 8.4353 3.47029C9.38888 0.593038 7.67895 -0.265299 6.3948 2.44604ZM59.6933 1.30982C59.574 1.59996 59.6634 2.85175 59.8918 4.09177C61.1044 10.6744 60.7708 16.6257 58.8924 21.9231C57.5846 25.6113 57.0736 26.3963 57.0652 24.7304C57.0377 19.3638 53.3148 12.8507 49.0733 10.7489C45.9222 9.18752 45.6274 10.2683 48.518 12.7851C56.5554 19.7834 54.8527 33.9088 44.1036 49.4043L42.5157 51.6933L41.9636 49.7889C40.4831 44.6822 39.9738 43.3696 38.0497 39.7006L35.9766 35.7474L37.6433 33.7295C38.56 32.6197 40.4344 31.032 41.8087 30.2013C43.183 29.3706 44.2428 28.5095 44.1637 28.2878C43.6667 26.893 39.9378 28.4095 36.4521 31.4239L34.0308 33.5178L31.8846 31.5955C29.582 29.5331 25.8581 27.5444 24.6935 27.7554C23.4517 27.9804 23.6045 28.7779 25.0178 29.4484C31.5726 32.5583 36.2416 40.8258 39.5563 55.1923C40.3933 58.8197 40.6819 59.2308 42.3925 59.2308C43.7998 59.2308 43.9577 59.0614 46.1602 55.1923C47.5179 52.8072 51.0517 46.8561 52.3433 44.7796C52.8356 43.988 54.1098 43.1056 56.201 42.1082C62.3316 39.1839 67.1378 33.2911 68.1072 27.5107C68.7914 23.4293 67.2122 22.8184 66.0997 26.7343C64.7094 31.6287 61.3194 36.0255 57.5225 37.8595C55.6437 38.767 55.6206 38.591 57.1947 35.3476C64.3238 20.6586 65.7354 10.406 61.7265 2.43362C61.0403 1.06904 60.0232 0.506894 59.6933 1.30982Z" fill="white"/>
</svg>

<svg version="1.1" viewBox="0 0 69 60" xmlns="http://www.w3.org/2000/svg">
  <path fill="#f7f7f7" d="m6.3948 2.446c-2.23 4.709-2.7375 14.023-1.03 18.9 0.3703 1.0578 0.7637 2.3264 0.8743 2.8194 0.26792 1.1961 3.7485 9.2952 5.1444 11.972 1.3701 2.6265 1.3447 2.6527-1.2831 1.3167-3.7798-1.9215-6.7529-5.8715-8.05-10.695-0.91927-3.4185-2.0464-3.4816-1.9731-0.1105 0.12793 5.8801 5.0979 12.165 12.511 15.822 2.9406 1.4503 2.0897 0.2978 8.6585 11.732 2.799 4.8723 2.9341 5.0284 4.3505 5.0284 1.7589 0 2.0099-0.3864 2.9981-4.6153 1.0019-4.2876 2.1275-8.008 3.3336-11.019l0.8659-2.1618-0.9415-1.2916c-0.5178-0.7105-1.0553-1.2929-1.194-1.2943-0.4645-0.0048-2.5724 4.7608-3.8947 8.8047l-1.3077 3.9997-1.5542-2.2688c-1.4404-2.1033-5.9507-10.436-7.0643-13.052-3.9914-9.3766-2.3596-20.718 3.4644-24.08 2.0539-1.1858 1.6766-2.6432-0.4855-1.8754-4.4228 1.5707-8.4306 8.2734-8.8587 14.816-0.0969 1.4801-1.2129-1.1313-2.335-5.4637-1.1513-4.4452-1.2509-13.052-0.1883-16.258 0.95358-2.8773-0.75635-3.7356-2.0405-1.0242zm53.298-1.1362c-0.1193 0.29014-0.0299 1.5419 0.1985 2.782 1.2126 6.5826 0.879 12.534-0.9994 17.831-1.3078 3.6882-1.8188 4.4732-1.8272 2.8073-0.0275-5.3666-3.7504-11.88-7.9919-13.982-3.1511-1.5614-3.4459-0.4806-0.5553 2.0362 8.0374 6.9983 6.3347 21.124-4.4144 36.619l-1.5879 2.289-0.5521-1.9044c-1.4805-5.1067-1.9898-6.4193-3.9139-10.088l-2.0731-3.9532 1.6667-2.0179c0.9167-1.1098 2.7911-2.6975 4.1654-3.5282s2.4341-1.6918 2.355-1.9135c-0.497-1.3948-4.2259 0.1217-7.7116 3.1361l-2.4213 2.0939-2.1462-1.9223c-2.3026-2.0624-6.0265-4.0511-7.1911-3.8401-1.2418 0.225-1.089 1.0225 0.3243 1.693 6.5548 3.1099 11.224 11.377 14.538 25.744 0.837 3.6274 1.1256 4.0385 2.8362 4.0385 1.4073 0 1.5652-0.1694 3.7677-4.0385 1.3577-2.3851 4.8915-8.3362 6.1831-10.413 0.4923-0.7916 1.7665-1.674 3.8577-2.6714 6.1306-2.9243 10.937-8.8171 11.906-14.598 0.6842-4.0814-0.895-4.6923-2.0075-0.7764-1.3903 4.8944-4.7803 9.2912-8.5772 11.125-1.8788 0.9075-1.9019 0.7315-0.3278-2.5119 7.1291-14.689 8.5407-24.942 4.5318-32.914-0.6862-1.3646-1.7033-1.9267-2.0332-1.1238z"/>
</svg>
